packages/bezier-icons/icons/cancel-circle.svg

<svg width="24" height="24" viewBox="0 0 24 24" fill="none" xmlns="http://www.w3.org/2000/svg">
<path fill-rule="evenodd" clip-rule="evenodd" d="M12.0002 20.0001C7.5892 20.0001 4.0002 16.4111 4.0002 12.0001C4.0002 7.58912 7.5892 4.00012 12.0002 4.00012C16.4112 4.00012 20.0002 7.58912 20.0002 12.0001C20.0002 16.4111 16.4112 20.0001 12.0002 20.0001ZM2.0002 12.0001C2.0002 17.5231 6.4772 22.0001 12.0002 22.0001C17.5232 22.0001 22.0002 17.5231 22.0002 12.0001C22.0002 6.47712 17.5232 2.00012 12.0002 2.00012C6.4772 2.00012 2.0002 6.47712 2.0002 12.0001ZM16.2426 7.75735C15.8521 7.36683 15.219 7.36683 14.8284 7.75735L14.1213 8.46446L12 10.5858L9.87868 8.46446L9.17157 7.75735C8.78105 7.36683 8.14788 7.36683 7.75736 7.75735C7.36684 8.14787 7.36684 8.78104 7.75736 9.17156L8.46354 9.87774C8.46385 9.87805 8.46416 9.87836 8.46447 9.87867L10.5858 12L8.46447 14.1213L7.75736 14.8284C7.36684 15.2189 7.36684 15.8521 7.75736 16.2426C8.14788 16.6332 8.78105 16.6332 9.17157 16.2426L9.87743 15.5368C9.87785 15.5364 9.87826 15.5359 9.87868 15.5355L12 13.4142L14.1213 15.5355C14.1217 15.5359 14.1221 15.5363 14.1224 15.5366L14.8284 16.2426C15.219 16.6332 15.8521 16.6332 16.2426 16.2426C16.6332 15.8521 16.6332 15.2189 16.2426 14.8284L15.5355 14.1213L13.4142 12L15.5355 9.87867C15.5359 9.87827 15.5363 9.87787 15.5367 9.87746L16.2426 9.17156C16.6332 8.78104 16.6332 8.14787 16.2426 7.75735Z" fill="#313234"/>
</svg>

<svg xmlns="http://www.w3.org/2000/svg" width="24" height="24" fill="none" viewBox="0 0 24 24"><path fill="#313234" fill-rule="evenodd" d="M12 20c-4.41 0-8-3.589-8-8s3.59-8 8-8 8 3.59 8 8-3.589 8-8 8M2 12c0 5.523 4.477 10 10 10s10-4.477 10-10S17.523 2 12 2 2 6.477 2 12m14.243-4.243a1 1 0 0 0-1.415 0l-.707.707L12 10.586 9.879 8.464l-.707-.707a1 1 0 0 0-1.415 1.415l.707.706L10.586 12l-2.122 2.121-.707.707a1 1 0 1 0 1.415 1.415l.705-.706.002-.002L12 13.416l2.121 2.12.001.002.706.706a1 1 0 1 0 1.415-1.415l-.707-.707L13.414 12l2.122-2.121v-.002l.707-.705a1 1 0 0 0 0-1.415" clip-rule="evenodd"/></svg>
